assets/img/braze_icons/folder-code.svg

<svg fill="none" height="24" viewBox="0 0 24 24" width="24" xmlns="http://www.w3.org/2000/svg"><path clip-rule="evenodd" d="m1 6.16167v10.07993c-.000011.8049-.00002 1.4693.0442 2.0105.04592.5621.14449 1.0788.39178 1.5641.38349.7527.99541 1.3646 1.74806 1.7481.48534.2473 1.00204.3458 1.56414.3918.54119.0442 1.20556.0442 2.01052.0441h10.4826c.805.0001 1.4693.0001 2.0105-.0441.5621-.046 1.0788-.1445 1.5642-.3918.7526-.3835 1.3645-.9954 1.748-1.7481.2473-.4853.3459-1.002.3918-1.5641.0442-.5412.0442-1.2056.0442-2.0105v-4.4827c0-.8049 0-1.4693-.0442-2.01048-.0459-.5621-.1445-1.0788-.3918-1.56414-.3835-.75265-.9954-1.36457-1.748-1.74806-.4854-.24729-1.0021-.34586-1.5642-.39178-.5412-.04422-1.2055-.04421-2.0105-.0442h-3.6232l-.8947-1.7896c-.2648-.53125-.4976-.99843-.8603-1.35368-.3177-.31115-.7006-.54778-1.121-.69278-.4799-.16555-1.00188-.16486-1.59544-.16407l-3.9852.0001c-.52715-.00001-.98191-.00003-1.35648.03057-.39535.03231-.78857.10362-1.16695.29642-.56448.28762-1.02343.74656-1.31105 1.31104-.19279.37838-.26411.7716-.29641 1.16695-.030599.37455-.030585.82937-.03057 1.35648zm9.7071 6.04573c.3905-.3906.3905-1.0237 0-1.4143-.3905-.3905-1.02368-.3905-1.41421 0l-2.5 2.5c-.39052.3906-.39052 1.0237 0 1.4143l2.5 2.5c.39053.3905 1.02371.3905 1.41421 0 .3905-.3906.3905-1.0237 0-1.4143l-1.79289-1.7929zm4-1.4143c-.3905-.3905-1.0237-.3905-1.4142 0-.3905.3906-.3905 1.0237 0 1.4143l1.7929 1.7928-1.7929 1.7929c-.3905.3906-.3905 1.0237 0 1.4143.3905.3905 1.0237.3905 1.4142 0l2.5-2.5c.3905-.3906.3905-1.0237 0-1.4143z" fill="#801ed7" fill-rule="evenodd"/></svg>

<svg width="24" height="24" viewBox="0 0 24 24" fill="none" xmlns="http://www.w3.org/2000/svg">
<path fill-rule="evenodd" clip-rule="evenodd" d="M1 6.16167V16.2416C0.999989 17.0465 0.99998 17.7109 1.0442 18.2521C1.09012 18.8142 1.18869 19.3309 1.43598 19.8162C1.81947 20.5689 2.43139 21.1808 3.18404 21.5643C3.66938 21.8116 4.18608 21.9101 4.74818 21.9561C5.28937 22.0003 5.95374 22.0003 6.7587 22.0002H17.2413C18.0463 22.0003 18.7106 22.0003 19.2518 21.9561C19.8139 21.9101 20.3306 21.8116 20.816 21.5643C21.5686 21.1808 22.1805 20.5689 22.564 19.8162C22.8113 19.3309 22.9099 18.8142 22.9558 18.2521C23 17.7109 23 17.0465 23 16.2416V11.7589C23 10.954 23 10.2896 22.9558 9.74842C22.9099 9.18632 22.8113 8.66962 22.564 8.18428C22.1805 7.43163 21.5686 6.81971 20.816 6.43622C20.3306 6.18893 19.8139 6.09036 19.2518 6.04444C18.7106 6.00022 18.0463 6.00023 17.2413 6.00024H13.6181L12.7234 4.21064C12.4586 3.67939 12.2258 3.21221 11.8631 2.85696C11.5454 2.54581 11.1625 2.30918 10.7421 2.16418C10.2622 1.99863 9.74022 1.99932 9.14666 2.00011L5.16146 2.00021C4.63431 2.0002 4.17955 2.00018 3.80498 2.03078C3.40963 2.06309 3.01641 2.1344 2.63803 2.3272C2.07355 2.61482 1.6146 3.07376 1.32698 3.63824C1.13419 4.01662 1.06287 4.40984 1.03057 4.80519C0.999971 5.17974 0.999985 5.63456 1 6.16167ZM10.7071 12.2074C11.0976 11.8168 11.0976 11.1837 10.7071 10.7931C10.3166 10.4026 9.68342 10.4026 9.29289 10.7931L6.79289 13.2931C6.40237 13.6837 6.40237 14.3168 6.79289 14.7074L9.29289 17.2074C9.68342 17.5979 10.3166 17.5979 10.7071 17.2074C11.0976 16.8168 11.0976 16.1837 10.7071 15.7931L8.91421 14.0002L10.7071 12.2074ZM14.7071 10.7931C14.3166 10.4026 13.6834 10.4026 13.2929 10.7931C12.9024 11.1837 12.9024 11.8168 13.2929 12.2074L15.0858 14.0002L13.2929 15.7931C12.9024 16.1837 12.9024 16.8168 13.2929 17.2074C13.6834 17.5979 14.3166 17.5979 14.7071 17.2074L17.2071 14.7074C17.5976 14.3168 17.5976 13.6837 17.2071 13.2931L14.7071 10.7931Z" fill="#801ED7"/>
</svg>
